X: 16
T: Miss Monaghan
Z: Aberfoyle Whistler
S: https://thesession.org/tunes/471#setting52670
R: reel
M: 4/4
L: 1/8
K: Dmaj
A|:D2 F/E/D F ~A3|GAAG F ~A3|DBBA ~B3 d|fedf ~e3 f|
d2 ED F ~A3|GAAG F ~A3|d2 fd ecdB|AFEG FD D2:|
|:~a3 b afdf|feed edB z|d3 b ~a3 d|fedf ~e3 g|
f2 gb afdf|feed edBz|dedB ABdB|AFEG FDD2:|

